!!!COM: Mozart, Wolfgang Amadeus
!!!OPR: Quartet in G Major
!!!OTL: Presto
!!!OMV: 1
!!!SCT: K 156
!!!SCA: Chronologisch-thematisches Verzeichnis sämtlicher Tonwerke Wolfgang Amade Mozarts (L. von Köchel; 1862, 2/1905, 3/1937, 1947)
!!!YOR: Breitkopf & Härtel Edition
!!!EED: Edmund Correia, Jr.
!!!ENC: Edmund Correia, Jr.
!!!CDT: 1756/1/27/-1791/12/5/
!!!OCY: Österreich
!!!YEC: Copyright (c) 1994, 2000 Center for Computer Assisted Research in the Humanities
!!!YEM: Rights to all derivative editions reserved.
!!!YEM: Refer to licensing agreement for further details.
!!!YEN: United States of America
**kern	**kern	**kern	**kern
*I:Violino 1	*I:Violino 2	*I:Viola	*I:Violoncello
*>[A,A,B,B]	*>[A,A,B,B]	*>[A,A,B,B]	*>[A,A,B,B]
*>A	*>A	*>A	*>A
*clefG2	*clefG2	*clefC3	*clefF4
*k[f#]	*k[f#]	*k[f#]	*k[f#]
*G:	*G:	*G:	*G:
*M3/8	*M3/8	*M3/8	*M3/8
! Presto	! Presto	! Presto	! Presto
*tb16	*tb16	*tb16	*tb16
=1-	=1-	=1-	=1-
[4.ddxx	8r	8r	4Gxx
.	8bxx	8gxx	.
.	8b	8g	8r
=2	=2	=2	=2
(8dd]	8r	8r	4GG
8bb	8dd	8g	.
8gg)	8b	8d	8r
=3	=3	=3	=3
4.ggT	8r	8r	4AA
.	8cc	8d	.
.	8cc	8d	8r
=4	=4	=4	=4
4ff#	8r	8r	4A
.	8cc	8d	.
8r	8cc	8d	8r
=5	=5	=5	=5
[4.aa	8r	8r	4D
.	8a	8f#	.
.	8a	8f#	8r
=6	=6	=6	=6
8aa]	8r	8r	4DD
8a	8f#	8d	.
8cc	8a	8d	8r
=7	=7	=7	=7
4.ccT	8r	8r	4GG
.	8a	8f#	.
.	8a	8f#	8r
=8	=8	=8	=8
4b	8r	8r	4G
.	8g	8g	.
8r	8g	8d	8r
=9	=9	=9	=9
4.dd	8r	8r	4B
.	8g	8d	.
.	8g	8d	8r
=10	=10	=10	=10
4.dd	8r	8r	4A
.	8cc	8f#	.
.	8cc	8f#	8r
=11	=11	=11	=11
(16gg	4b	4g	4G
16aa	.	.	.
16bb)	.	.	.
16gg'	.	.	.
16ff#'	8r	8r	8r
16ee'	.	.	.
=12	=12	=12	=12
16dd	4.r	4.r	4.r
16ee	.	.	.
16dd	.	.	.
16cc	.	.	.
16b	.	.	.
16a	.	.	.
=13	=13	=13	=13
16g	4d	4B	4GG
16a	.	.	.
16b	.	.	.
16g	.	.	.
16f#	8r	8r	8r
16e	.	.	.
=14	=14	=14	=14
16d	4.r	4.r	4.r
16e	.	.	.
16d	.	.	.
16c	.	.	.
16B	.	.	.
16A	.	.	.
=15	=15	=15	=15
8G	8G	4.G	4.G
16g	16g	.	.
16f#	16f#	.	.
16g	16g	.	.
16a	16a	.	.
=16	=16	=16	=16
8b	8b	4.B	4.B
16b	16b	.	.
16a	16a	.	.
16b	16b	.	.
16cc	16cc	.	.
=17	=17	=17	=17
8dd	8dd	8d	8d
8dd	8a 8f#	8f#	8A
8dd	8a 8f#	8a	8F#
=18	=18	=18	=18
4dd	4a 4f#	4f#	4D
8r	8r	8r	8r
=19	=19	=19	=19
(8ff#	(8d	4.r	4D
8gg	8e	.	.
8aa)	8f#)	.	8r
=20	=20	=20	=20
4.aa	(8f#	8r	4D
.	8e	8a'	.
.	8d)	8a'	8r
=21	=21	=21	=21
(8cc#	(8e	4a'	4A
8dd	8f#	.	.
8ee)	8g)	8r	8r
=22	=22	=22	=22
4.ee	(8g	8r	4A
.	8f#	8a'	.
.	8e)	8a'	8r
=23	=23	=23	=23
(8dd	(8f#	4a'	4D
8ee	8g	.	.
8ff#)	8a)	8r	8r
=24	=24	=24	=24
4.ff#	(8a	8r	4D
.	8f#	8a'	.
.	8d)	8a'	8r
=25	=25	=25	=25
(8gg	(8e	4a'xx	4AA
8ff#	8d	.	.
8ee)	8c#)	8r	8r
=26	=26	=26	=26
4.ee	(8c#	8r	4AA
.	8e	8a'xx	.
.	8a)	8a'xx	8r
=27	=27	=27	=27
(16ff#	4.r	4.r	4.r
16gg	.	.	.
16ff#	.	.	.
16gg	.	.	.
8aa)	.	.	.
=28	=28	=28	=28
8aa'	8a'	8A'	8F#'
8aa'	8g'	8c#'	8E'
8aa'	8f#'	8d'	8D'
=29	=29	=29	=29
(16cc#	4.r	4.r	4.r
16dd	.	.	.
16cc#	.	.	.
16dd	.	.	.
8ee)	.	.	.
=30	=30	=30	=30
8ee'	8g'	8c#'	8E'
8ee'	8g'	8B'	8D'
8ee'	8g'	8A'	8C#'
=31	=31	=31	=31
(16dd	4.r	4.r	4.r
16ee	.	.	.
16dd	.	.	.
16ee	.	.	.
8ff#)	.	.	.
=32	=32	=32	=32
8ff#'	8f#'	8A'	8D'
8ff#'	8d'	8A'	8D'
8ff#'	8d'	8A'	8D'
=33	=33	=33	=33
(16gg	4.r	4.r	4.r
16ff#	.	.	.
16gg	.	.	.
16ff#	.	.	.
8ee)	.	.	.
=34	=34	=34	=34
8ee'	8c#'	8A'	8AA'
8ee'	8d'	8A'	8BB'
8ee'	8e'	8G'	8C#'
=35	=35	=35	=35
[4.dd	4.A	4.F#	8D
.	.	.	8D
.	.	.	8D
=36	=36	=36	=36
(8dd]	4.a	[4.f#	8D
8ddd	.	.	8D
8cccn)	.	.	8D
=37	=37	=37	=37
(4.aa#	[4.d	4.f#]	8G
.	.	.	8G
.	.	.	8G
=38	=38	=38	=38
8bb)	(8d]	8g	8G
8r	8g	8e	8G
8r	8f#)	8d	8G
=39	=39	=39	=39
[4.a	(4.e	4.c#	8A
.	.	.	8A
.	.	.	8A
=40	=40	=40	=40
(8a]	[4.cc#)	[4.e	8AA
8aa	.	.	8AA
8gg)	.	.	8AA
=41	=41	=41	=41
(4.gg	4.cc#]	4.e]	8BB
.	.	.	8BB
.	.	.	8BB
=42	=42	=42	=42
8ff#)	8dd	8d	8B
8r	8cc#	8d	8A
8r	8b	8d	8G
=43	=43	=43	=43
(16dd	4a	4d	4F#
16cc#	.	.	.
16dd	.	.	.
16ee	.	.	.
16ff#	8r	8r	8r
16gg)	.	.	.
=44	=44	=44	=44
8aa	(16dd	8r	4F#
.	16ee	.	.
8r	16ff#	8a	.
.	16ee	.	.
8r	16dd	8f#	8r
.	16cc#)	.	.
=45	=45	=45	=45
(16ee	8b	4d	4G
16dd#	.	.	.
16ee	8r	.	.
16ff#	.	.	.
16gg	8r	8r	8r
16aa)	.	.	.
=46	=46	=46	=46
8bb	(16e	8r	4G
.	16f#	.	.
8r	16g	8B	.
.	16f#	.	.
8r	16e	8G	8r
.	16d)	.	.
=47	=47	=47	=47
(8aa	(4c#	(4e	(4A
8gg)	.	.	.
8ff#	8d)	8d)	8B)
=48	=48	=48	=48
8ee'	8b'	8r	8G
(8dd	(8f#	(8a	8A
8cc#)	8e)	8g)	8A
=49	=49	=49	=49
(16dd	4a	4d	4F#
16cc#	.	.	.
16dd	.	.	.
16ee	.	.	.
16ff#	8r	8r	8r
16gg)	.	.	.
=50	=50	=50	=50
8aa	(16dd	8r	4F#
.	16ee	.	.
8r	16ff#	8a	.
.	16ee	.	.
8r	16dd	8f#	8r
.	16cc#)	.	.
=51	=51	=51	=51
(16ee	8b	4d	4G
16dd#	.	.	.
16ee	8r	.	.
16ff#	.	.	.
16gg	8r	8r	8r
16aa)	.	.	.
=52	=52	=52	=52
8bb	(16e	8r	4G
.	16f#	.	.
8r	16g	8B	.
.	16f#	.	.
8r	16e	8G	8r
.	16d)	.	.
=53	=53	=53	=53
(8aa	(4c#	(4e	(4A
8gg)	.	.	.
8ff#	8d)	8d)	8B)
=54	=54	=54	=54
8ee'	8b'	8r	8G
(8dd	(8f#	(8a	8A
8cc#)	8e)	8g)	8A
=55	=55	=55	=55
4dd	4d	4f#	4D
8r	8a	8f#	8r
=56	=56	=56	=56
4.r	(8a	(8f#	4.r
.	8f#)	8d)	.
.	8a'	8f#'	.
=57	=57	=57	=57
4.r	(8a	(8f#	4.r
.	8f#)	8d)	.
.	8a'	8f#'	.
=58	=58	=58	=58
*^	*	*	*
8r	4ryy	(8g	(8e	8r
8r	.	8e)	8c#)	8r
8gg	8a	8cc#'	8e'	8A
=59	=59	=59	=59	=59
*v	*v	*	*	*
4ff# 4a 4d	4dd	4d	4D
8r	8a	8f#	8r
=60	=60	=60	=60
4.r	(8a	(8f#	4.r
.	8f#)	8d)	.
.	8a'	8f#'	.
=61	=61	=61	=61
4.r	(8a	(8f#	4.r
.	8f#)	8d)	.
.	8a'	8f#'	.
=62	=62	=62	=62
*^	*	*	*
8r	4ryy	(8g	(8e	8r
8r	.	8e)	8c#)	8r
8ccc#	8a	8g'	8e'	8A
=63	=63	=63	=63	=63
4ddd	4a 4d	4f#	4f#	4D
8a	8ryy	8a	8a	8A
=64	=64	=64	=64	=64
*v	*v	*	*	*
8dd	8dd	8dd	8d
8cc#	8cc#	8cc#	8c#
8b	8b	8b	8B
=65	=65	=65	=65
4.a#	4.a#	4.a#	4.A#
=66	=66	=66	=66
8b	8b	8b	8B
8an	8an	8an	8An
8g	8g	8g	8G
=67	=67	=67	=67
4.f#	4.f#	4.f#	4.F#
=68	=68	=68	=68
8g	8g	8g	4.G
8bb	8ee	8g	.
8bb	8dd	8f#	.
=69	=69	=69	=69
(8bb	4cc#	4.e	4.A
8aa)	.	.	.
8cc#'	8g	.	.
=70	=70	=70	=70
(4.cc#	(4.g	(4.e	[4.D
=71	=71	=71	=71
8dd)	8f#)	8d)	8D]
8r	8r	8r	8r
8r	8r	8r	8r
=72:!!:	=72:!!:	=72:!!:	=72:!!:
*>B	*>B	*>B	*>B
4.r	(16B	4.r	4.r
.	16cn	.	.
.	8B)	.	.
.	8B'	.	.
=73	=73	=73	=73
4.r	(16B	4.b	4.r
.	16c	.	.
.	8B)	.	.
.	8B'	.	.
=74	=74	=74	=74
4.r	(16B	4.g	4.r
.	16c	.	.
.	8B)	.	.
.	8B'	.	.
=75	=75	=75	=75
(4.ee	(16B	4.e	(4.G
.	16c	.	.
.	8B)	.	.
.	8B'	.	.
=76	=76	=76	=76
4.dd#	(16B	4.r	4.F#
.	16c	.	.
.	8B)	.	.
.	8B'	.	.
=77	=77	=77	=77
4.b)	(16B	4.b	4.D#)
.	16c	.	.
.	8B)	.	.
.	8B'	.	.
=78	=78	=78	=78
4.r	(16B	4.g	4.r
.	16c	.	.
.	8B)	.	.
.	8B'	.	.
=79	=79	=79	=79
(4.ee	(16B	4.e	(4.G
.	16c	.	.
.	8B)	.	.
.	8B'	.	.
=80	=80	=80	=80
4.cc#	(16A	4.r	4.E
.	16B	.	.
.	8A)	.	.
.	8A'	.	.
=81	=81	=81	=81
4.a)	(16A	4.a	4.C#)
.	16B	.	.
.	8A)	.	.
.	8A'	.	.
=82	=82	=82	=82
4.r	(16A	4.f#	4.r
.	16B	.	.
.	8A)	.	.
.	8A'	.	.
=83	=83	=83	=83
(4.ddn	(16A	4.d	(4.F#
.	16B	.	.
.	8A)	.	.
.	8A'	.	.
=84	=84	=84	=84
4.cc#	(16A	4.r	4.E
.	16B	.	.
.	8A)	.	.
.	8A'	.	.
=85	=85	=85	=85
4.a)	(16A	4.a	4.C#)
.	16B	.	.
.	8A)	.	.
.	8A'	.	.
=86	=86	=86	=86
4.r	(16A	4.f#	4.D
.	16B	.	.
.	8A)	.	.
.	8A'	.	.
=87	=87	=87	=87
4.r	(16dd	4.d	4.B
.	16ee	.	.
.	8dd)	.	.
.	8dd'	.	.
=88	=88	=88	=88
(16ee	(8dd	(8B	4.G#
16ffn	.	.	.
8ee)	8b	8g#	.
8ee'	8cc)	8a)	.
=89	=89	=89	=89
(16ee	(8dd	(8b	4.E
16ffn	.	.	.
8ee)	8cc	8a	.
8ee'	8b)	8g#)	.
=90	=90	=90	=90
(8ee	(16cc	4a	4A
.	16dd	.	.
8aa	8cc)	.	.
8bb)	8cc'	8r	8r
=91	=91	=91	=91
(8ccc	(16cc	(16a	4Gn
.	16dd	16b	.
8aa	8cc)	8a)	.
8ee)	8cc'	8a'	8r
=92	=92	=92	=92
(16dd	(8cc	(8a	4.F#
16ee	.	.	.
8dd)	8a	8f#	.
8dd'	8b)	8gn)	.
=93	=93	=93	=93
(16dd	(8cc	(8a	4.D
16ee	.	.	.
8dd)	8b	8g	.
8dd'	8a)	8f#)	.
=94	=94	=94	=94
(8dd	(16b	4g	4G
.	16cc	.	.
8gg	8b)	.	.
8aa)	8b'	8r	8r
=95	=95	=95	=95
(8bb	(16b	(16g	4G
.	16cc	16a	.
8gg	8b)	8g)	.
8dd)	8b'	8g'	8r
=96	=96	=96	=96
(8cc	(8a	(16d	4.F#
.	.	16e	.
8aa)	8cc)	8d)	.
8cc'	8a'	8d'	.
=97	=97	=97	=97
(8b	(8g	(16d	4.G
.	.	16e	.
8gg)	8b)	8d)	.
8b'	8g'	8d'	.
=98	=98	=98	=98
4a	4f#	4d	(16d
.	.	.	16e
.	.	.	8d)
8r	8r	8r	8d'
=99	=99	=99	=99
(4.cc	(4.a	(4.f#	(16d
.	.	.	16e
.	.	.	8d)
.	.	.	8d'
=100	=100	=100	=100
8b)	8g)	8g)	(16d
.	.	.	16e
8r	8r	8r	8d)
8r	8r	8r	8d'
=101	=101	=101	=101
(4.gg	(4.cc#	(4.e	(16d
.	.	.	16e
.	.	.	8d)
.	.	.	8d'
=102	=102	=102	=102
8ff#)	8dd)	8d)	(16d
.	.	.	16e
8r	8r	8r	8d)
8r	8r	8r	8d'
=103	=103	=103	=103
(4.aa	(4.ff#	(4.cc	(16d
.	.	.	16e
.	.	.	8d)
.	.	.	8d'
=104	=104	=104	=104
8bb-)	8gg)	8b-)	(16d
.	.	.	16e
8r	8r	8r	8d)
8r	8r	8r	8d'
=105	=105	=105	=105
(4.cc#	(4.b-	(4.g	(16d
.	.	.	16e
.	.	.	8d)
.	.	.	8d'
=106	=106	=106	=106
8dd)	8a)	8f#)	8d'
8r	8r	8r	8r
8r	8r	8r	8r
=107	=107	=107	=107
8dd	8a	8f#	8d
8r	8r	8r	8r
8r	8r	8r	8r
=108	=108	=108	=108
8dd	8a	8f#	8d
8r	8r	8r	8r
8r	8r	8r	8r
=109	=109	=109	=109
4.r	4.r	4.r	4.r
=110	=110	=110	=110
[4.dd	8r	8r	4G
.	8bn	8g	.
.	8b	8g	8r
=111	=111	=111	=111
(8dd]	8r	8r	4GG
8bb	8dd	8g	.
8gg)	8b	8d	8r
=112	=112	=112	=112
(4.ggT	8r	8r	4AA
.	8cc	8d	.
.	8cc	8d	8r
=113	=113	=113	=113
8ff#)	8r	8r	4A
8r	8cc	8d	.
8r	8cc	8d	8r
=114	=114	=114	=114
[4.aa	8r	8r	4D
.	8a	8f#	.
.	8a	8f#	8r
=115	=115	=115	=115
8aa]	8r	8r	4DD
8a	8f#	8d	.
8cc	8a	8d	8r
=116	=116	=116	=116
(4.ccT	8r	8r	4GG
.	8a	8f#	.
.	8a	8f#	8r
=117	=117	=117	=117
8b)	8r	8r	4G
8r	8g	8g	.
8r	8d	8g	8r
=118	=118	=118	=118
4.dd	8r	8r	4B
.	8g	8d	.
.	8g	8d	8r
=119	=119	=119	=119
4.dd	8r	8r	4A
.	8cc	8f#	.
.	8cc	8f#	8r
=120	=120	=120	=120
(16gg	4b	4g	4G
16aa	.	.	.
16bb)	.	.	.
16gg'	.	.	.
16ff#'	8r	8r	8r
16ee'	.	.	.
=121	=121	=121	=121
16dd	4.r	4.r	4.r
16ee	.	.	.
16dd	.	.	.
16ccn	.	.	.
16b	.	.	.
16a	.	.	.
=122	=122	=122	=122
16g	4d	4B	4GG
16a	.	.	.
16b	.	.	.
16g	.	.	.
16f#	8r	8r	8r
16e	.	.	.
=123	=123	=123	=123
16d	4.r	4.r	4.r
16e	.	.	.
16d	.	.	.
16c	.	.	.
16B	.	.	.
16A	.	.	.
=124	=124	=124	=124
8G	8G	4.G	4.G
16g	16g	.	.
16f#	16f#	.	.
16g	16g	.	.
16a	16a	.	.
=125	=125	=125	=125
8b	8b	4.B	4.B
16b	16b	.	.
16a	16a	.	.
16b	16b	.	.
16cc	16cc	.	.
=126	=126	=126	=126
8dd	8dd	8d	8d
8dd	8a 8f#	8f#	8A
8dd	8a 8f#	8a	8F#
=127	=127	=127	=127
4dd	4a 4f#	4f#	4D
8r	8r	8r	8r
=128	=128	=128	=128
(8b	(8G	4.r	4G
8cc	8A	.	.
8dd)	8B)	.	8r
=129	=129	=129	=129
4.dd	(8B	8r	4G
.	8A	8d'	.
.	8G)	8d'	8r
=130	=130	=130	=130
(8f#	(8A	4d'	4D
8g	8B	.	.
8a)	8c)	8r	8r
=131	=131	=131	=131
4.a	(8c	8r	4D
.	8B	8d'	.
.	8A)	8d'	8r
=132	=132	=132	=132
(8g	(8B	4d'xx	4GG
8a	8c	.	.
8b)	8d)	8r	8r
=133	=133	=133	=133
4.b	(8d	8r	4GG
.	8B	8d'	.
.	8G)	8d'	8r
=134	=134	=134	=134
(8cc	(8f#	4d'xx	4DD
8b	8g	.	.
8a)	8f#)	8r	8r
=135	=135	=135	=135
4.a	(8f#	8r	4DD
.	8d	8d'	.
.	8c)	8d'	8r
=136	=136	=136	=136
(16bb	4.r	4.r	4.r
16ccc	.	.	.
16bb	.	.	.
16ccc	.	.	.
8ddd)	.	.	.
=137	=137	=137	=137
8ddd'	8dd'	8d'	8B'xx
8ddd'	8cc'	8f#'	8A'xx
8ddd'	8b'	8g'	8G'xx
=138	=138	=138	=138
(16ff#	4.r	4.r	4.r
16gg	.	.	.
16ff#	.	.	.
16gg	.	.	.
8aa)	.	.	.
=139	=139	=139	=139
8aa'	8cc'	8a'	8F#'
8aa'	8cc'	8g'	8E'
8aa'	8cc'	8f#'	8D'
=140	=140	=140	=140
(16gg	4.r	4.r	4.r
16aa	.	.	.
16gg	.	.	.
16aa	.	.	.
8bb)	.	.	.
=141	=141	=141	=141
8bb'	8g'	8d'	8G'
8bb'	8g'	8d'	8G'
8bb'	8g'	8d'	8G'
=142	=142	=142	=142
(16ccc	4.r	4.r	4.r
16bb	.	.	.
16ccc	.	.	.
16bb	.	.	.
8aa)	.	.	.
=143	=143	=143	=143
8aa'	8f#'	8d'	8D'
8aa'	8g'	8e'	8D'
8aa'	8a'	8f#'	8D'
=144	=144	=144	=144
[4.gg	4.b	4.g	8G
.	.	.	8G
.	.	.	8G
=145	=145	=145	=145
8gg]	4.d	[4.B	8GG
8g	.	.	8GG
8ffn	.	.	8GG
=146	=146	=146	=146
(4.dd#	[4.G	(4.B]	8C
.	.	.	8C
.	.	.	8C
=147	=147	=147	=147
8ee)	8G]	8c)	8C
8r	(8c	(8A	8C
8r	8B)	8G)	8C
=148	=148	=148	=148
[4.d	4.A	4.F#	8D
.	.	.	8D
.	.	.	8D
=149	=149	=149	=149
(8d]	[4.f#	[4.A	8D
8dd	.	.	8D
8cc)	.	.	8D
=150	=150	=150	=150
(4.cc	4.f#]	4.A]	8D#
.	.	.	8D#
.	.	.	8D#
=151	=151	=151	=151
8b)	8g	8G	8E
8r	8f#	8G	8Dn
8r	8e	8G	8C
=152	=152	=152	=152
(16g	4d	4G	4BB
16f#	.	.	.
16g	.	.	.
16a	.	.	.
16b	8r	8r	8r
16cc)	.	.	.
=153	=153	=153	=153
4dd	(16dd	8r	4BB
.	16cc	.	.
.	16b	8d	.
.	16a	.	.
8r	16g	8B	8r
.	16fn)	.	.
=154	=154	=154	=154
(16ee	4e	4G	4C
16ff#	.	.	.
16gg	.	.	.
16ff#	.	.	.
16ee	8r	8r	8r
16dd)	.	.	.
=155	=155	=155	=155
4cc	(16cc	8r	4C
.	16dd	.	.
.	16cc	8e	.
.	16b	.	.
8r	16a	8c	8r
.	16g)	.	.
=156	=156	=156	=156
(8a	(4f#	(8c	(4D
8cc)	.	8A	.
8b'	8g)	8G)	8E)
=157	=157	=157	=157
8a'	8e'	8r	8C
(8g	(8B	8d	8D
8f#)	8A)	8d	8D
=158	=158	=158	=158
(16g	4d	4G	4BB
16f#	.	.	.
16g	.	.	.
16a	.	.	.
16b	8r	8r	8r
16cc)	.	.	.
=159	=159	=159	=159
4dd	(16dd	8r	4BB
.	16cc	.	.
.	16b	8d	.
.	16a	.	.
8r	16g	8B	8r
.	16fn)	.	.
=160	=160	=160	=160
(16ee	4e	4G	4C
16ff#	.	.	.
16gg	.	.	.
16ff#	.	.	.
16ee	8r	8r	8r
16dd)	.	.	.
=161	=161	=161	=161
4cc	(16cc	8r	4C
.	16dd	.	.
.	16cc	8e	.
.	16b	.	.
8r	16a	8c	8r
.	16g)	.	.
=162	=162	=162	=162
(8a	(4f#	(8c	(4D
8cc)	.	8A	.
8b'	8g)	8G)	8E)
=163	=163	=163	=163
8a'	8e'	8r	8C
(8g	(8B	8d	8D
8f#)	8A)	8d	8D
=164	=164	=164	=164
4g	4B	4d	4G
8r	8dd'	8b'	8r
=165	=165	=165	=165
4.r	(8dd	(8b	4.r
.	8b)	8g)	.
.	8dd'	8b'	.
=166	=166	=166	=166
4.r	(8dd	(8b	4.r
.	8b)	8g)	.
.	8dd'	8b'	.
=167	=167	=167	=167
8r	(8cc	(8a	8r
8r	8a)	8f#)	8r
8ccc 8dd	8ff#'	8a'	8D
=168	=168	=168	=168
4bb 4dd	4gg	4g	4G
8r	8dd	8b	8r
=169	=169	=169	=169
4.r	(8dd	(8b	4.r
.	8b)	8g)	.
.	8dd'	8b'	.
=170	=170	=170	=170
4.r	(8dd	(8b	4.r
.	8b)	8g)	.
.	8dd'	8b'	.
=171	=171	=171	=171
8r	(8cc	(8a	8r
8r	8a)	8f#)	8r
8ff# 8a	8cc'	8d'	8D
=172	=172	=172	=172
4gg 4b 4d	4b 4d 4G	4d 4G	4GG
8d	8d	8d	8D
=173	=173	=173	=173
8g	8g	8g	8G
8f#	8f#	8f#	8F#
8e	8e	8e	8E
=174	=174	=174	=174
4.d#	4.d#	4.d#	4.D#
=175	=175	=175	=175
8e	8e	8e	8E
8dn	8dn	8dn	8Dn
8c	8c	8c	8C
=176	=176	=176	=176
4.B	4.B	4.B	4.BB
=177	=177	=177	=177
8c	8c	8c	4.C
8ee	8a	8c	.
8ee	8g	8B	.
=178	=178	=178	=178
(8ee	4f#	4.A	4.D
8dd)	.	.	.
8f#'	8c	.	.
=179	=179	=179	=179
(4.f#	(4.c	(4.A	[4.GG
=180	=180	=180	=180
8g)	8B)	8G)	8GG]
8r	8r	8r	8r
8r	8r	8r	8r
==:|!	==:|!	==:|!	==:|!
*-	*-	*-	*-
!!!RWG: Key is interpreted using the Humdrum key tool.
!!!AFT: stage2
!!!END: 1994/02/14
!!format changes:
!!content changes:
!!public access: complete
!!!KEY: 1101969716
!!!EMD: Converted from MuseData to Humdrum Dec 16, 2000, by Andreas Kornstaedt using muse2kern.
